X:5609
T:Rogue's March
O:england
M:6/8
L:1/8
K:G
B2B Bcd|e2e e3|d2B d2e|d2c B2A|
B2B Bcd|e2e e3|def gdB|A3G3:|
|:g3f3|e3d3|gag fgf|efe d2c|
B2B Bcd|e2e e3|def gdB|A3G3:|
